; G-Code generated by Simplify3D(R) Version 4.0.0
; Apr 2, 2018 at 12:53:48 PM
; Settings Summary
;   processName,Process1
;   applyToModels,04-02 ForceStopper,04-02 ShaftSyncAdapter,tensioner_small_part,04-02 ForceStopper(2),tensioner_big_2.7mm_standard,tensioner_big_2.7mm_standard(2),tensioner_small_part(2),tensioner_big_2.7mm_standard(3),tensioner_small_part(2)(2),04-02 ForceStopper(2)(2),04-02 ForceStopper(2)(2)(2)
;   profileName,Slowla (modified)
;   profileVersion,2018-03-29 08:07:56
;   baseProfile,Default
;   printMaterial,PLA
;   printQuality,Medium
;   printExtruders,
;   extruderName,Primary Extruder
;   extruderToolheadNumber,0
;   extruderDiameter,0.35
;   extruderAutoWidth,0
;   extruderWidth,0.4
;   extrusionMultiplier,1
;   extruderUseRetract,1
;   extruderRetractionDistance,3.5
;   extruderExtraRestartDistance,0
;   extruderRetractionZLift,0
;   extruderRetractionSpeed,1800
;   extruderUseCoasting,1
;   extruderCoastingDistance,0.2
;   extruderUseWipe,1
;   extruderWipeDistance,5
;   primaryExtruder,0
;   layerHeight,0.2
;   topSolidLayers,3
;   bottomSolidLayers,3
;   perimeterOutlines,2
;   printPerimetersInsideOut,1
;   startPointOption,2
;   startPointOriginX,0
;   startPointOriginY,0
;   sequentialIslands,0
;   spiralVaseMode,0
;   firstLayerHeightPercentage,95
;   firstLayerWidthPercentage,90
;   firstLayerUnderspeed,0.5
;   useRaft,0
;   raftExtruder,0
;   raftTopLayers,3
;   raftBaseLayers,2
;   raftOffset,3
;   raftSeparationDistance,0.14
;   raftTopInfill,100
;   aboveRaftSpeedMultiplier,0.3
;   useSkirt,1
;   skirtExtruder,0
;   skirtLayers,1
;   skirtOutlines,3
;   skirtOffset,4
;   usePrimePillar,0
;   primePillarExtruder,999
;   primePillarWidth,12
;   primePillarLocation,7
;   primePillarSpeedMultiplier,1
;   useOozeShield,0
;   oozeShieldExtruder,999
;   oozeShieldOffset,2
;   oozeShieldOutlines,1
;   oozeShieldSidewallShape,1
;   oozeShieldSidewallAngle,30
;   oozeShieldSpeedMultiplier,1
;   infillExtruder,0
;   internalInfillPattern,Fast Honeycomb
;   externalInfillPattern,Rectilinear
;   infillPercentage,21
;   outlineOverlapPercentage,15
;   infillExtrusionWidthPercentage,100
;   minInfillLength,5
;   infillLayerInterval,1
;   internalInfillAngles,0
;   overlapInternalInfillAngles,0
;   externalInfillAngles,45,-45
;   generateSupport,1
;   supportExtruder,0
;   supportInfillPercentage,30
;   supportExtraInflation,0.2
;   supportBaseLayers,0
;   denseSupportExtruder,0
;   denseSupportLayers,0
;   denseSupportInfillPercentage,70
;   supportLayerInterval,1
;   supportHorizontalPartOffset,0.3
;   supportUpperSeparationLayers,1
;   supportLowerSeparationLayers,1
;   supportType,0
;   supportGridSpacing,4
;   maxOverhangAngle,45
;   supportAngles,0
;   temperatureName,Primary Extruder,Bed
;   temperatureNumber,0,0
;   temperatureSetpointCount,1,1
;   temperatureSetpointLayers,1,1
;   temperatureSetpointTemperatures,205,60
;   temperatureStabilizeAtStartup,1,1
;   temperatureHeatedBed,0,1
;   temperatureRelayBetweenLayers,0,0
;   temperatureRelayBetweenLoops,0,0
;   fanLayers,1,2
;   fanSpeeds,0,100
;   blipFanToFullPower,0
;   adjustSpeedForCooling,1
;   minSpeedLayerTime,15
;   minCoolingSpeedSlowdown,20
;   increaseFanForCooling,0
;   minFanLayerTime,45
;   maxCoolingFanSpeed,100
;   increaseFanForBridging,0
;   bridgingFanSpeed,100
;   use5D,1
;   relativeEdistances,0
;   allowEaxisZeroing,1
;   independentExtruderAxes,0
;   includeM10123,0
;   stickySupport,1
;   applyToolheadOffsets,0
;   gcodeXoffset,0
;   gcodeYoffset,0
;   gcodeZoffset,0.71
;   overrideMachineDefinition,0
;   machineTypeOverride,0
;   strokeXoverride,200
;   strokeYoverride,200
;   strokeZoverride,200
;   originOffsetXoverride,0
;   originOffsetYoverride,0
;   originOffsetZoverride,0
;   homeXdirOverride,-1
;   homeYdirOverride,-1
;   homeZdirOverride,-1
;   flipXoverride,1
;   flipYoverride,-1
;   flipZoverride,1
;   toolheadOffsets,0,0|0,0|0,0|0,0|0,0|0,0
;   overrideFirmwareConfiguration,0
;   firmwareTypeOverride,RepRap (Marlin/Repetier/Sprinter)
;   GPXconfigOverride,r2
;   baudRateOverride,115200
;   overridePrinterModels,0
;   printerModelsOverride
;   startingGcode,G28 ; home all axes
;   layerChangeGcode,
;   retractionGcode,
;   toolChangeGcode,
;   endingGcode,M104 S0 ; turn off extruder,M140 S0 ; turn off bed,M84 ; disable motors,G28 X Y ;home X and Y axis
;   exportFileFormat,gcode
;   celebration,0
;   celebrationSong,Random Song
;   postProcessing,
;   defaultSpeed,2400
;   outlineUnderspeed,0.8
;   solidInfillUnderspeed,1
;   supportUnderspeed,1
;   rapidXYspeed,3600
;   rapidZspeed,1000
;   minBridgingArea,50
;   bridgingExtraInflation,0
;   bridgingExtrusionMultiplier,1
;   bridgingSpeedMultiplier,1
;   useFixedBridgingAngle,0
;   fixedBridgingAngle,0
;   applyBridgingToPerimeters,0
;   filamentDiameters,1.75|1.75|1.75|1.75|1.75|1.75
;   filamentPricesPerKg,50|46|46|46|46|46
;   filamentDensities,1.25|1.25|1.25|1.25|1.25|1.25
;   useMinPrintHeight,0
;   minPrintHeight,0
;   useMaxPrintHeight,0
;   maxPrintHeight,0
;   useDiaphragm,0
;   diaphragmLayerInterval,20
;   robustSlicing,1
;   mergeAllIntoSolid,0
;   onlyRetractWhenCrossingOutline,1
;   retractBetweenLayers,1
;   useRetractionMinTravel,0
;   retractionMinTravel,3
;   retractWhileWiping,0
;   onlyWipeOutlines,1
;   avoidCrossingOutline,0
;   maxMovementDetourFactor,3
;   toolChangeRetractionDistance,12
;   toolChangeExtraRestartDistance,-0.5
;   toolChangeRetractionSpeed,600
;   externalThinWallType,0
;   internalThinWallType,2
;   thinWallAllowedOverlapPercentage,10
;   singleExtrusionMinLength,1
;   singleExtrusionMinPrintingWidthPercentage,50
;   singleExtrusionMaxPrintingWidthPercentage,200
;   singleExtrusionEndpointExtension,0.2
;   horizontalSizeCompensation,0
G90
M82
M106 S0
M140 S60
M190 S60
M104 S205 T0
M109 S205 T0
G28 ; home all axes
G92 E0
G1 E-3.5000 F1800
G1 Z0.900 F1000
; process Process1
; layer 1, Z = 0.190
T0
; tool H0.200 W0.360
; skirt
G1 X67.152 Y55.527 F3600
G1 E0.0000 F540
G92 E0
G1 X69.777 Y52.902 E0.1111 F1200
G1 X70.144 Y52.750 E0.1230
G1 X89.856 Y52.750 E0.7131
G1 X90.223 Y52.902 E0.7250
G1 X90.500 Y53.179 E0.7367
G1 X90.777 Y52.902 E0.7484
G1 X91.144 Y52.750 E0.7603
G1 X120.356 Y52.750 E1.6347
G1 X120.723 Y52.902 E1.6466
G1 X123.348 Y55.527 E1.7577
G1 X123.500 Y55.894 E1.7696
G1 X123.500 Y68.946 E2.1603
G1 X123.498 Y68.989 E2.1616
G1 X123.464 Y69.380 E2.1734
G1 X123.458 Y69.423 E2.1747
G1 X123.296 Y70.344 E2.2027
G1 X123.274 Y70.428 E2.2053
G1 X123.005 Y71.168 E2.2288
G1 X122.969 Y71.247 E2.2314
G1 X122.402 Y72.230 E2.2654
G1 X122.352 Y72.301 E2.2680
G1 X121.848 Y72.904 E2.2915
G1 X121.786 Y72.965 E2.2941
G1 X120.925 Y73.690 E2.3278
G1 X120.855 Y73.740 E2.3304
G1 X120.181 Y74.131 E2.3537
G1 X120.103 Y74.168 E2.3563
G1 X119.037 Y74.562 E2.3903
G1 X118.951 Y74.585 E2.3930
G1 X118.167 Y74.726 E2.4168
G1 X118.079 Y74.734 E2.4195
G1 X114.943 Y74.735 E2.5134
G1 X114.856 Y74.728 E2.5160
G1 X114.088 Y74.594 E2.5393
G1 X114.004 Y74.572 E2.5419
G1 X112.939 Y74.189 E2.5758
G1 X112.860 Y74.152 E2.5784
G1 X112.175 Y73.759 E2.6020
G1 X112.103 Y73.709 E2.6046
G1 X111.302 Y73.041 E2.6359
G1 X111.254 Y72.995 E2.6379
G1 X110.850 Y72.556 E2.6557
G1 X110.809 Y72.505 E2.6577
G1 X110.430 Y71.963 E2.6775
G1 X110.407 Y71.927 E2.6788
G1 X110.214 Y71.595 E2.6903
G1 X110.194 Y71.557 E2.6915
G1 X110.012 Y71.170 E2.7043
G1 X101.503 Y71.170 E2.9590
G1 X101.474 Y71.234 E2.9611
G1 X100.912 Y72.215 E2.9950
G1 X100.862 Y72.287 E2.9976
G1 X100.358 Y72.892 E3.0212
G1 X100.297 Y72.954 E3.0238
G1 X99.430 Y73.686 E3.0578
G1 X99.359 Y73.737 E3.0604
G1 X98.679 Y74.133 E3.0839
G1 X98.600 Y74.170 E3.0866
G1 X97.539 Y74.561 E3.1204
G1 X97.456 Y74.583 E3.1230
G1 X96.690 Y74.723 E3.1463
G1 X96.604 Y74.731 E3.1489
G1 X93.833 Y74.751 E3.2318
G1 X93.788 Y74.750 E3.2331
G1 X93.382 Y74.716 E3.2454
G1 X93.337 Y74.710 E3.2467
G1 X93.000 Y74.651 E3.2569
G1 X93.000 Y78.050 E3.3587
G1 X99.356 Y78.050 E3.5490
G1 X99.723 Y78.202 E3.5609
G1 X100.000 Y78.479 E3.5726
G1 X100.277 Y78.202 E3.5843
G1 X100.644 Y78.050 E3.5962
G1 X129.856 Y78.050 E4.4706
G1 X130.223 Y78.202 E4.4825
G1 X132.848 Y80.827 E4.5936
G1 X133.000 Y81.194 E4.6055
G1 X133.000 Y94.246 E4.9962
G1 X132.998 Y94.289 E4.9975
G1 X132.964 Y94.680 E5.0093
G1 X132.958 Y94.723 E5.0106
G1 X132.796 Y95.644 E5.0386
G1 X132.774 Y95.728 E5.0412
G1 X132.505 Y96.468 E5.0647
G1 X132.469 Y96.547 E5.0673
G1 X131.902 Y97.530 E5.1013
G1 X131.852 Y97.601 E5.1039
G1 X131.348 Y98.204 E5.1274
G1 X131.286 Y98.265 E5.1300
G1 X130.425 Y98.990 E5.1637
G1 X130.355 Y99.039 E5.1663
G1 X129.681 Y99.431 E5.1896
G1 X129.603 Y99.468 E5.1922
G1 X128.537 Y99.862 E5.2262
G1 X128.451 Y99.885 E5.2289
G1 X127.667 Y100.026 E5.2527
G1 X127.579 Y100.034 E5.2554
G1 X124.443 Y100.035 E5.3493
G1 X124.356 Y100.028 E5.3518
G1 X123.588 Y99.894 E5.3752
G1 X123.504 Y99.872 E5.3778
G1 X122.533 Y99.522 E5.4087
G1 X122.473 Y99.496 E5.4106
G1 X121.949 Y99.226 E5.4283
G1 X121.893 Y99.192 E5.4303
G1 X121.265 Y98.756 E5.4531
G1 X121.214 Y98.715 E5.4551
G1 X120.778 Y98.318 E5.4728
G1 X120.732 Y98.271 E5.4747
G1 X120.127 Y97.556 E5.5028
G1 X120.088 Y97.503 E5.5047
G1 X119.770 Y97.007 E5.5224
G1 X119.738 Y96.950 E5.5243
G1 X119.512 Y96.470 E5.5402
G1 X113.091 Y96.470 E5.7324
G1 X114.447 Y97.827 E5.7899
G1 X114.600 Y98.194 E5.8018
G1 X114.600 Y110.058 E6.1569
G1 X128.857 Y110.062 E6.5837
G1 X129.224 Y110.214 E6.5956
G1 X131.848 Y112.839 E6.7067
G1 X132.000 Y113.206 E6.7186
G1 X132.000 Y120.294 E6.9307
G1 X131.848 Y120.662 E6.9426
G1 X129.223 Y123.286 E7.0538
G1 X128.856 Y123.438 E7.0657
G1 X126.248 Y123.438 E7.1437
G1 X126.848 Y124.038 E7.1691
G1 X127.000 Y124.406 E7.1810
G1 X127.000 Y131.494 E7.3932
G1 X126.848 Y131.862 E7.4051
G1 X125.160 Y133.550 E7.4766
G1 X126.848 Y135.238 E7.5481
G1 X127.000 Y135.606 E7.5600
G1 X127.000 Y142.694 E7.7722
G1 X126.848 Y143.062 E7.7841
G1 X124.223 Y145.686 E7.8952
G1 X123.856 Y145.838 E7.9071
G1 X70.144 Y145.838 E9.5149
G1 X69.777 Y145.686 E9.5268
G1 X67.152 Y143.062 E9.6379
G1 X67.000 Y142.694 E9.6498
G1 X67.000 Y135.607 E9.8619
G1 X67.152 Y135.240 E9.8738
G1 X68.840 Y133.550 E9.9453
G1 X67.152 Y131.862 E10.0168
G1 X67.000 Y131.494 E10.0287
G1 X67.000 Y124.407 E10.2409
G1 X67.152 Y124.040 E10.2528
G1 X68.840 Y122.350 E10.3243
G1 X67.152 Y120.662 E10.3957
G1 X67.000 Y120.294 E10.4076
G1 X67.000 Y113.209 E10.6197
G1 X67.152 Y112.841 E10.6316
G1 X68.135 Y111.856 E10.6733
G1 X67.153 Y110.873 E10.7149
G1 X67.000 Y110.506 E10.7268
G1 X67.000 Y98.194 E11.0953
G1 X67.153 Y97.827 E11.1073
G1 X67.861 Y97.118 E11.1372
G1 X67.538 Y96.561 E11.1565
G1 X67.502 Y96.483 E11.1591
G1 X67.233 Y95.749 E11.1825
G1 X67.210 Y95.666 E11.1851
G1 X67.044 Y94.743 E11.2132
G1 X67.038 Y94.698 E11.2145
G1 X67.002 Y94.299 E11.2265
G1 X67.000 Y94.254 E11.2278
G1 X67.000 Y81.194 E11.6188
G1 X67.152 Y80.827 E11.6307
G1 X67.429 Y80.550 E11.6424
G1 X67.152 Y80.273 E11.6541
G1 X67.000 Y79.906 E11.6660
G1 X67.000 Y55.894 E12.3848
G1 X67.076 Y55.711 E12.3907
G1 X67.152 Y55.527 F1200
G1 X67.491 Y55.753 F3600
G92 E0
G1 X70.003 Y53.241 E0.1063 F1200
G1 X70.224 Y53.150 E0.1135
G1 X89.776 Y53.150 E0.6988
G1 X89.997 Y53.241 E0.7059
G1 X90.500 Y53.745 E0.7272
G1 X91.003 Y53.241 E0.7485
G1 X91.224 Y53.150 E0.7557
G1 X120.276 Y53.150 E1.6253
G1 X120.497 Y53.241 E1.6325
G1 X123.009 Y55.753 E1.7388
G1 X123.100 Y55.974 E1.7460
G1 X123.100 Y68.937 E2.1340
G1 X123.099 Y68.963 E2.1348
G1 X123.066 Y69.336 E2.1460
G1 X123.063 Y69.362 E2.1468
G1 X122.906 Y70.257 E2.1740
G1 X122.892 Y70.308 E2.1756
G1 X122.635 Y71.015 E2.1981
G1 X122.613 Y71.062 E2.1996
G1 X122.064 Y72.015 E2.2325
G1 X122.034 Y72.058 E2.2341
G1 X121.552 Y72.633 E2.2566
G1 X121.515 Y72.670 E2.2581
G1 X120.681 Y73.373 E2.2908
G1 X120.638 Y73.402 E2.2923
G1 X119.995 Y73.777 E2.3146
G1 X119.948 Y73.799 E2.3162
G1 X118.915 Y74.181 E2.3492
G1 X118.863 Y74.195 E2.3507
G1 X118.114 Y74.329 E2.3735
G1 X118.061 Y74.334 E2.3751
G1 X114.960 Y74.335 E2.4680
G1 X114.908 Y74.331 E2.4695
G1 X114.174 Y74.203 E2.4918
G1 X114.123 Y74.190 E2.4934
G1 X113.091 Y73.818 E2.5262
G1 X113.043 Y73.796 E2.5278
G1 X112.389 Y73.421 E2.5504
G1 X112.346 Y73.391 E2.5520
G1 X111.568 Y72.742 E2.5823
G1 X111.539 Y72.715 E2.5835
G1 X111.154 Y72.295 E2.6005
G1 X111.129 Y72.264 E2.6017
G1 X110.762 Y71.741 E2.6208
G1 X110.749 Y71.719 E2.6216
G1 X110.564 Y71.401 E2.6326
G1 X110.553 Y71.379 E2.6334
G1 X110.280 Y70.800 E2.6525
G1 X110.268 Y70.770 E2.6535
G1 X101.224 Y70.770 E2.9242
G1 X101.140 Y71.003 E2.9316
G1 X101.118 Y71.050 E2.9332
G1 X100.573 Y72.001 E2.9660
G1 X100.544 Y72.045 E2.9676
G1 X100.062 Y72.623 E2.9901
G1 X100.025 Y72.660 E2.9917
G1 X99.185 Y73.370 E3.0246
G1 X99.143 Y73.400 E3.0261
G1 X98.492 Y73.778 E3.0487
G1 X98.445 Y73.801 E3.0502
G1 X97.417 Y74.179 E3.0830
G1 X97.367 Y74.193 E3.0846
G1 X96.635 Y74.326 E3.1068
G1 X96.583 Y74.331 E3.1084
G1 X93.839 Y74.351 E3.1905
G1 X93.812 Y74.350 E3.1913
G1 X93.424 Y74.318 E3.2030
G1 X93.397 Y74.314 E3.2038
G1 X92.600 Y74.175 E3.2280
G1 X92.600 Y78.450 E3.3560
G1 X99.276 Y78.450 E3.5559
G1 X99.497 Y78.541 E3.5630
G1 X100.000 Y79.045 E3.5843
G1 X100.503 Y78.541 E3.6056
G1 X100.724 Y78.450 E3.6128
G1 X129.776 Y78.450 E4.4824
G1 X129.997 Y78.541 E4.4896
G1 X132.509 Y81.053 E4.5959
G1 X132.600 Y81.274 E4.6031
G1 X132.600 Y94.237 E4.9911
G1 X132.599 Y94.263 E4.9919
G1 X132.566 Y94.636 E5.0031
G1 X132.563 Y94.662 E5.0039
G1 X132.406 Y95.557 E5.0311
G1 X132.392 Y95.608 E5.0327
G1 X132.135 Y96.315 E5.0552
G1 X132.113 Y96.362 E5.0567
G1 X131.564 Y97.315 E5.0896
G1 X131.534 Y97.358 E5.0912
G1 X131.052 Y97.933 E5.1137
G1 X131.015 Y97.970 E5.1152
G1 X130.181 Y98.673 E5.1479
G1 X130.139 Y98.702 E5.1494
G1 X129.495 Y99.077 E5.1717
G1 X129.448 Y99.099 E5.1733
G1 X128.415 Y99.481 E5.2063
G1 X128.363 Y99.495 E5.2078
G1 X127.614 Y99.629 E5.2306
G1 X127.561 Y99.634 E5.2322
G1 X124.460 Y99.635 E5.3251
G1 X124.408 Y99.631 E5.3266
G1 X123.674 Y99.503 E5.3489
G1 X123.623 Y99.490 E5.3505
G1 X122.681 Y99.150 E5.3805
G1 X122.645 Y99.135 E5.3816
G1 X122.144 Y98.876 E5.3985
G1 X122.110 Y98.856 E5.3997
G1 X121.504 Y98.435 E5.4218
G1 X121.473 Y98.411 E5.4230
G1 X121.056 Y98.031 E5.4398
G1 X121.029 Y98.003 E5.4410
G1 X120.441 Y97.307 E5.4683
G1 X120.418 Y97.276 E5.4695
G1 X120.113 Y96.802 E5.4863
G1 X120.094 Y96.767 E5.4875
G1 X119.780 Y96.100 E5.5096
G1 X119.768 Y96.070 E5.5105
G1 X112.125 Y96.070 E5.7393
G1 X114.108 Y98.053 E5.8233
G1 X114.200 Y98.274 E5.8304
G1 X114.200 Y110.426 E6.1942
G1 X114.186 Y110.458 E6.1952
G1 X128.777 Y110.462 E6.6320
G1 X128.998 Y110.553 E6.6391
G1 X131.509 Y113.065 E6.7455
G1 X131.600 Y113.286 E6.7526
G1 X131.600 Y120.215 E6.9600
G1 X131.509 Y120.435 E6.9672
G1 X128.997 Y122.947 E7.0735
G1 X128.776 Y123.038 E7.0806
G1 X125.282 Y123.038 E7.1852
G1 X126.509 Y124.265 E7.2372
G1 X126.600 Y124.486 E7.2443
G1 X126.600 Y131.415 E7.4517
G1 X126.509 Y131.635 E7.4589
G1 X124.594 Y133.550 E7.5399
G1 X126.509 Y135.465 E7.6210
G1 X126.600 Y135.686 E7.6281
G1 X126.600 Y142.615 E7.8356
G1 X126.509 Y142.835 E7.8427
G1 X123.997 Y145.347 E7.9490
G1 X123.776 Y145.438 E7.9562
G1 X70.224 Y145.438 E9.5592
G1 X70.003 Y145.347 E9.5664
G1 X67.491 Y142.835 E9.6727
G1 X67.400 Y142.615 E9.6799
G1 X67.400 Y135.687 E9.8872
G1 X67.491 Y135.466 E9.8944
G1 X69.406 Y133.550 E9.9755
G1 X67.491 Y131.635 E10.0565
G1 X67.400 Y131.415 E10.0637
G1 X67.400 Y124.487 E10.2710
G1 X67.491 Y124.266 E10.2782
G1 X69.406 Y122.350 E10.3593
G1 X67.491 Y120.435 E10.4403
G1 X67.400 Y120.215 E10.4475
G1 X67.400 Y113.288 E10.6548
G1 X67.491 Y113.068 E10.6619
G1 X68.701 Y111.856 E10.7132
G1 X67.492 Y110.647 E10.7644
G1 X67.400 Y110.426 E10.7715
G1 X67.400 Y98.274 E11.1353
G1 X67.492 Y98.053 E11.1424
G1 X68.361 Y97.184 E11.1792
G1 X67.893 Y96.376 E11.2072
G1 X67.871 Y96.329 E11.2087
G1 X67.614 Y95.628 E11.2311
G1 X67.601 Y95.578 E11.2326
G1 X67.439 Y94.680 E11.2599
G1 X67.436 Y94.654 E11.2607
G1 X67.402 Y94.272 E11.2722
G1 X67.400 Y94.245 E11.2730
G1 X67.400 Y81.274 E11.6613
G1 X67.491 Y81.053 E11.6685
G1 X67.995 Y80.550 E11.6898
G1 X67.491 Y80.047 E11.7111
G1 X67.400 Y79.826 E11.7182
G1 X67.400 Y55.974 E12.4322
