; G-Code generated by Simplify3D(R) Version 4.0.0
; Jan 29, 2018 at 9:27:36 PM
; Settings Summary
;   processName,Process1
;   applyToModels,Encoder Mount,Encoder Mount(2),Encoder Mount(3)
;   profileName,Slowla (modified)
;   profileVersion,2017-03-01 08:00:00
;   baseProfile,Default
;   printMaterial,PLA
;   printQuality,Medium
;   printExtruders,
;   extruderName,Primary Extruder
;   extruderToolheadNumber,0
;   extruderDiameter,0.35
;   extruderAutoWidth,0
;   extruderWidth,0.4
;   extrusionMultiplier,1
;   extruderUseRetract,1
;   extruderRetractionDistance,3.5
;   extruderExtraRestartDistance,0
;   extruderRetractionZLift,0
;   extruderRetractionSpeed,1800
;   extruderUseCoasting,1
;   extruderCoastingDistance,0.2
;   extruderUseWipe,1
;   extruderWipeDistance,5
;   primaryExtruder,0
;   layerHeight,0.2
;   topSolidLayers,3
;   bottomSolidLayers,3
;   perimeterOutlines,2
;   printPerimetersInsideOut,1
;   startPointOption,2
;   startPointOriginX,0
;   startPointOriginY,0
;   sequentialIslands,0
;   spiralVaseMode,0
;   firstLayerHeightPercentage,95
;   firstLayerWidthPercentage,90
;   firstLayerUnderspeed,0.5
;   useRaft,0
;   raftExtruder,0
;   raftTopLayers,3
;   raftBaseLayers,2
;   raftOffset,3
;   raftSeparationDistance,0.14
;   raftTopInfill,100
;   aboveRaftSpeedMultiplier,0.3
;   useSkirt,1
;   skirtExtruder,0
;   skirtLayers,1
;   skirtOutlines,3
;   skirtOffset,4
;   usePrimePillar,0
;   primePillarExtruder,999
;   primePillarWidth,12
;   primePillarLocation,7
;   primePillarSpeedMultiplier,1
;   useOozeShield,0
;   oozeShieldExtruder,999
;   oozeShieldOffset,2
;   oozeShieldOutlines,1
;   oozeShieldSidewallShape,1
;   oozeShieldSidewallAngle,30
;   oozeShieldSpeedMultiplier,1
;   infillExtruder,0
;   internalInfillPattern,Fast Honeycomb
;   externalInfillPattern,Rectilinear
;   infillPercentage,15
;   outlineOverlapPercentage,15
;   infillExtrusionWidthPercentage,100
;   minInfillLength,5
;   infillLayerInterval,1
;   internalInfillAngles,0
;   overlapInternalInfillAngles,0
;   externalInfillAngles,45,-45
;   generateSupport,1
;   supportExtruder,0
;   supportInfillPercentage,30
;   supportExtraInflation,0.2
;   supportBaseLayers,0
;   denseSupportExtruder,0
;   denseSupportLayers,0
;   denseSupportInfillPercentage,70
;   supportLayerInterval,1
;   supportHorizontalPartOffset,0.3
;   supportUpperSeparationLayers,1
;   supportLowerSeparationLayers,1
;   supportType,0
;   supportGridSpacing,4
;   maxOverhangAngle,25
;   supportAngles,0
;   temperatureName,Primary Extruder,Bed
;   temperatureNumber,0,0
;   temperatureSetpointCount,1,1
;   temperatureSetpointLayers,1,1
;   temperatureSetpointTemperatures,205,60
;   temperatureStabilizeAtStartup,1,1
;   temperatureHeatedBed,0,1
;   temperatureRelayBetweenLayers,0,0
;   temperatureRelayBetweenLoops,0,0
;   fanLayers,1,2
;   fanSpeeds,0,100
;   blipFanToFullPower,0
;   adjustSpeedForCooling,1
;   minSpeedLayerTime,15
;   minCoolingSpeedSlowdown,20
;   increaseFanForCooling,0
;   minFanLayerTime,45
;   maxCoolingFanSpeed,100
;   increaseFanForBridging,0
;   bridgingFanSpeed,100
;   use5D,1
;   relativeEdistances,0
;   allowEaxisZeroing,1
;   independentExtruderAxes,0
;   includeM10123,0
;   stickySupport,1
;   applyToolheadOffsets,0
;   gcodeXoffset,0
;   gcodeYoffset,0
;   gcodeZoffset,0.71
;   overrideMachineDefinition,0
;   machineTypeOverride,0
;   strokeXoverride,200
;   strokeYoverride,200
;   strokeZoverride,200
;   originOffsetXoverride,0
;   originOffsetYoverride,0
;   originOffsetZoverride,0
;   homeXdirOverride,-1
;   homeYdirOverride,-1
;   homeZdirOverride,-1
;   flipXoverride,1
;   flipYoverride,-1
;   flipZoverride,1
;   toolheadOffsets,0,0|0,0|0,0|0,0|0,0|0,0
;   overrideFirmwareConfiguration,0
;   firmwareTypeOverride,RepRap (Marlin/Repetier/Sprinter)
;   GPXconfigOverride,r2
;   baudRateOverride,115200
;   overridePrinterModels,0
;   printerModelsOverride
;   startingGcode,G28 ; home all axes
;   layerChangeGcode,
;   retractionGcode,
;   toolChangeGcode,
;   endingGcode,M104 S0 ; turn off extruder,M140 S0 ; turn off bed,M84 ; disable motors,G28 X Y ;home X and Y axis
;   exportFileFormat,gcode
;   celebration,0
;   celebrationSong,Random Song
;   postProcessing,
;   defaultSpeed,2400
;   outlineUnderspeed,0.6
;   solidInfillUnderspeed,0.8
;   supportUnderspeed,0.8
;   rapidXYspeed,3600
;   rapidZspeed,1000
;   minBridgingArea,50
;   bridgingExtraInflation,0
;   bridgingExtrusionMultiplier,1
;   bridgingSpeedMultiplier,1
;   useFixedBridgingAngle,0
;   fixedBridgingAngle,0
;   applyBridgingToPerimeters,0
;   filamentDiameters,1.75|1.75|1.75|1.75|1.75|1.75
;   filamentPricesPerKg,30|46|46|46|46|46
;   filamentDensities,1.25|1.25|1.25|1.25|1.25|1.25
;   useMinPrintHeight,0
;   minPrintHeight,0
;   useMaxPrintHeight,0
;   maxPrintHeight,0
;   useDiaphragm,0
;   diaphragmLayerInterval,20
;   robustSlicing,1
;   mergeAllIntoSolid,0
;   onlyRetractWhenCrossingOutline,1
;   retractBetweenLayers,1
;   useRetractionMinTravel,0
;   retractionMinTravel,3
;   retractWhileWiping,0
;   onlyWipeOutlines,1
;   avoidCrossingOutline,0
;   maxMovementDetourFactor,3
;   toolChangeRetractionDistance,12
;   toolChangeExtraRestartDistance,-0.5
;   toolChangeRetractionSpeed,600
;   externalThinWallType,0
;   internalThinWallType,2
;   thinWallAllowedOverlapPercentage,10
;   singleExtrusionMinLength,1
;   singleExtrusionMinPrintingWidthPercentage,50
;   singleExtrusionMaxPrintingWidthPercentage,200
;   singleExtrusionEndpointExtension,0.2
;   horizontalSizeCompensation,0
G90
M82
M106 S0
M140 S60
M190 S60
M104 S205 T0
M109 S205 T0
G28 ; home all axes
G92 E0
G1 E-3.5000 F1800
G1 Z0.900 F1000
; process Process1
; layer 1, Z = 0.190
T0
; tool H0.200 W0.360
; skirt
G1 X87.952 Y80.808 F3600
G1 E0.0000 F540
G92 E0
G1 X88.682 Y80.078 E0.0309 F1200
G1 X88.732 Y79.957 E0.0348
G1 X91.357 Y77.332 E0.1459
G1 X91.724 Y77.180 E0.1578
G1 X108.276 Y77.180 E0.6533
G1 X108.643 Y77.332 E0.6652
G1 X111.268 Y79.957 E0.7763
G1 X111.318 Y80.078 E0.7802
G1 X112.048 Y80.808 E0.8111
G1 X112.200 Y81.176 E0.8230
G1 X112.200 Y89.656 E1.0769
G1 X112.048 Y90.023 E1.0888
G1 X109.423 Y92.648 E1.1999
G1 X109.056 Y92.800 E1.2118
G1 X90.944 Y92.800 E1.7540
G1 X90.577 Y92.648 E1.7659
G1 X87.952 Y90.023 E1.8770
G1 X87.800 Y89.656 E1.8889
G1 X87.800 Y81.176 E2.1427
G1 X87.876 Y80.993 E2.1487
G1 X87.952 Y80.808 F1200
G1 X91.724 Y96.580 F3600
G92 E0
G1 X108.276 Y96.580 E0.4955 F1200
G1 X108.643 Y96.732 E0.5074
G1 X111.268 Y99.357 E0.6185
G1 X111.318 Y99.478 E0.6224
G1 X112.048 Y100.208 E0.6533
G1 X112.200 Y100.576 E0.6652
G1 X112.200 Y109.056 E0.9191
G1 X112.048 Y109.423 E0.9310
G1 X109.423 Y112.048 E1.0421
G1 X109.056 Y112.200 E1.0540
G1 X90.944 Y112.200 E1.5961
G1 X90.577 Y112.048 E1.6080
G1 X87.952 Y109.423 E1.7191
G1 X87.800 Y109.056 E1.7310
G1 X87.800 Y100.576 E1.9849
G1 X87.952 Y100.208 E1.9968
G1 X88.682 Y99.478 E2.0277
G1 X88.732 Y99.357 E2.0316
G1 X91.357 Y96.732 E2.1427
G1 X91.539 Y96.657 E2.1487
G1 X91.724 Y96.580 F1200
G1 X91.724 Y115.980 F3600
G92 E0
G1 X108.276 Y115.980 E0.4955 F1200
G1 X108.643 Y116.132 E0.5074
G1 X111.268 Y118.757 E0.6185
G1 X111.318 Y118.878 E0.6224
G1 X112.048 Y119.608 E0.6533
G1 X112.200 Y119.976 E0.6652
G1 X112.200 Y128.456 E0.9191
G1 X112.048 Y128.823 E0.9310
G1 X109.423 Y131.448 E1.0421
G1 X109.056 Y131.600 E1.0540
G1 X90.944 Y131.600 E1.5961
G1 X90.577 Y131.448 E1.6080
G1 X87.952 Y128.823 E1.7191
G1 X87.800 Y128.456 E1.7310
G1 X87.800 Y119.976 E1.9849
G1 X87.952 Y119.608 E1.9968
G1 X88.682 Y118.878 E2.0277
G1 X88.732 Y118.757 E2.0316
G1 X91.357 Y116.132 E2.1427
G1 X91.539 Y116.057 E2.1487
G1 X91.724 Y115.980 F1200
G1 X91.804 Y116.380 F3600
G92 E0
G1 X108.196 Y116.380 E0.4907 F1200
G1 X108.417 Y116.471 E0.4978
G1 X110.929 Y118.983 E0.6042
G1 X110.979 Y119.105 E0.6081
G1 X111.709 Y119.835 E0.6390
G1 X111.800 Y120.055 E0.6461
G1 X111.800 Y128.376 E0.8952
G1 X111.709 Y128.597 E0.9024
G1 X109.197 Y131.109 E1.0087
G1 X108.976 Y131.200 E1.0159
G1 X91.024 Y131.200 E1.5533
G1 X90.803 Y131.109 E1.5604
G1 X88.291 Y128.597 E1.6667
G1 X88.200 Y128.376 E1.6739
G1 X88.200 Y120.055 E1.9230
G1 X88.291 Y119.835 E1.9301
G1 X89.021 Y119.105 E1.9610
G1 X89.071 Y118.983 E1.9649
G1 X91.583 Y116.471 E2.0713
G1 X91.619 Y116.457 E2.0724
G1 X91.804 Y116.380 F1200
G1 X91.024 Y111.800 F3600
G92 E0
G1 X90.803 Y111.709 E0.0071 F1200
G1 X88.291 Y109.197 E0.1135
G1 X88.200 Y108.976 E0.1206
G1 X88.200 Y100.655 E0.3697
G1 X88.291 Y100.435 E0.3769
G1 X89.021 Y99.705 E0.4077
G1 X89.071 Y99.583 E0.4117
G1 X91.583 Y97.071 E0.5180
G1 X91.804 Y96.980 E0.5252
G1 X108.196 Y96.980 E1.0159
G1 X108.417 Y97.071 E1.0230
G1 X110.929 Y99.583 E1.1293
G1 X110.979 Y99.705 E1.1333
G1 X111.709 Y100.435 E1.1642
G1 X111.800 Y100.655 E1.1713
G1 X111.800 Y108.976 E1.4204
G1 X111.709 Y109.197 E1.4276
G1 X109.197 Y111.709 E1.5339
G1 X108.976 Y111.800 E1.5410
G1 X91.224 Y111.800 E2.0724
G1 X91.024 Y111.800 F1200
G1 X91.024 Y92.400 F3600
G92 E0
G1 X90.803 Y92.309 E0.0071 F1200
G1 X88.291 Y89.797 E0.1135
G1 X88.200 Y89.576 E0.1206
G1 X88.200 Y81.255 E0.3697
G1 X88.291 Y81.035 E0.3769
G1 X89.021 Y80.305 E0.4077
G1 X89.071 Y80.183 E0.4117
G1 X91.583 Y77.671 E0.5180
G1 X91.804 Y77.580 E0.5252
G1 X108.196 Y77.580 E1.0159
G1 X108.417 Y77.671 E1.0230
G1 X110.929 Y80.183 E1.1293
G1 X110.979 Y80.305 E1.1333
G1 X111.709 Y81.035 E1.1642
G1 X111.800 Y81.255 E1.1713
G1 X111.800 Y89.576 E1.4204
G1 X111.709 Y89.797 E1.4276
G1 X109.197 Y92.309 E1.5339
G1 X108.976 Y92.400 E1.5410
G1 X91.224 Y92.400 E2.0724
G1 X91.024 Y92.400 F1200
G1 X91.103 Y92.000 F3600
G92 E0
G1 X91.030 Y91.970 E0.0024 F1200
G1 X88.630 Y89.570 E0.1040
G1 X88.600 Y89.497 E0.1063
G1 X88.600 Y81.335 E0.3507
G1 X88.630 Y81.261 E0.3530
G1 X89.380 Y80.512 E0.3848
G1 X89.380 Y80.483 E0.3856
G1 X89.410 Y80.410 E0.3880
G1 X91.810 Y78.010 E0.4896
G1 X91.883 Y77.980 E0.4920
G1 X108.117 Y77.980 E0.9779
G1 X108.190 Y78.010 E0.9803
G1 X110.590 Y80.410 E1.0818
G1 X110.620 Y80.483 E1.0842
G1 X110.620 Y80.512 E1.0851
G1 X111.370 Y81.261 E1.1168
G1 X111.400 Y81.335 E1.1192
G1 X111.400 Y89.497 E1.3635
G1 X111.370 Y89.570 E1.3659
G1 X108.970 Y91.970 E1.4675
G1 X108.897 Y92.000 E1.4698
G1 X91.303 Y92.000 E1.9965
G1 X91.103 Y92.000 F1200
G1 X91.883 Y97.380 F3600
G92 E0
G1 X108.117 Y97.380 E0.4859 F1200
G1 X108.190 Y97.410 E0.4883
G1 X110.590 Y99.810 E0.5899
G1 X110.620 Y99.883 E0.5923
G1 X110.620 Y99.912 E0.5931
G1 X111.370 Y100.661 E0.6248
G1 X111.400 Y100.735 E0.6272
G1 X111.400 Y108.897 E0.8715
G1 X111.370 Y108.970 E0.8739
G1 X108.970 Y111.370 E0.9755
G1 X108.897 Y111.400 E0.9779
G1 X91.103 Y111.400 E1.5105
G1 X91.030 Y111.370 E1.5129
G1 X88.630 Y108.970 E1.6145
G1 X88.600 Y108.897 E1.6168
G1 X88.600 Y100.735 E1.8612
G1 X88.630 Y100.661 E1.8636
G1 X89.380 Y99.912 E1.8953
G1 X89.380 Y99.883 E1.8961
G1 X89.410 Y99.810 E1.8985
G1 X91.725 Y97.496 E1.9965
G1 X91.810 Y97.410 F1200
G1 X91.883 Y97.380 F1200
G1 X91.883 Y116.780 F3600
G92 E0
G1 X108.117 Y116.780 E0.4859 F1200
G1 X108.190 Y116.810 E0.4883
G1 X110.590 Y119.210 E0.5899
G1 X110.620 Y119.283 E0.5923
G1 X110.620 Y119.312 E0.5931
G1 X111.370 Y120.061 E0.6248
G1 X111.400 Y120.135 E0.6272
G1 X111.400 Y128.297 E0.8715
G1 X111.370 Y128.370 E0.8739
G1 X108.970 Y130.770 E0.9755
G1 X108.897 Y130.800 E0.9779
G1 X91.103 Y130.800 E1.5105
G1 X91.030 Y130.770 E1.5129
G1 X88.630 Y128.370 E1.6145
G1 X88.600 Y128.297 E1.6168
G1 X88.600 Y120.135 E1.8612
G1 X88.630 Y120.061 E1.8636
G1 X89.380 Y119.312 E1.8953
G1 X89.380 Y119.283 E1.8961
G1 X89.410 Y119.210 E1.8985
G1 X91.725 Y116.896 E1.9965
G1 X91.810 Y116.810 F1200
G1 X91.883 Y116.780 F1200
G92 E0
G1 E-3.5000 F1800
; inner perimeter
G1 X93.340 Y122.371 F3600
G1 E0.0000 F1800
G92 E0
G1 X94.260 Y122.371 E0.0275 F960
G1 X94.260 Y125.140 E0.1104
G1 X105.740 Y125.140 E0.4541
G1 X105.740 Y122.371 E0.5369
G1 X106.660 Y122.371 E0.5645
G1 X106.660 Y126.060 E0.6749
G1 X93.340 Y126.060 E1.0736
G1 X93.340 Y122.571 E1.1781
G1 X93.340 Y122.371 F960
; outer perimeter
G1 X92.980 Y122.011 F3600
G92 E0
G1 X94.620 Y122.011 E0.0491 F720
G1 X94.620 Y124.780 E0.1320
G1 X105.380 Y124.780 E0.4541
G1 X105.380 Y122.011 E0.5369
G1 X107.020 Y122.011 E0.5860
G1 X107.020 Y126.420 E0.7180
G1 X92.980 Y126.420 E1.1383
G1 X92.980 Y122.211 E1.2643
G1 X92.980 Y122.011 F720
G92 E0
G1 E-3.5000 F1800
G1 X94.620 Y122.011 F2400
G1 X94.620 Y124.780 F2400
G1 X95.211 Y124.780 F2400
; solid layer
G1 X93.954 Y122.974 F3600
G1 E0.0000 F1800
G92 E0
G1 X93.658 Y122.677 E0.0125 F960
G1 X93.646 Y122.677 E0.0129
G1 X93.646 Y123.175 E0.0278
G1 X93.954 Y123.483 E0.0408
G1 X93.954 Y123.992 E0.0561
G1 X93.646 Y123.684 E0.0691
G1 X93.646 Y124.193 E0.0843
G1 X93.954 Y124.501 E0.0974
G1 X93.954 Y125.010 E0.1126
G1 X93.646 Y124.702 E0.1257
G1 X93.646 Y125.211 E0.1409
G1 X94.189 Y125.754 E0.1639
G1 X94.698 Y125.754 E0.1791
G1 X94.390 Y125.446 E0.1922
G1 X94.899 Y125.446 E0.2074
G1 X95.207 Y125.754 E0.2204
G1 X95.716 Y125.754 E0.2357
G1 X95.408 Y125.446 E0.2487
G1 X95.917 Y125.446 E0.2640
G1 X96.225 Y125.754 E0.2770
G1 X96.734 Y125.754 E0.2922
G1 X96.426 Y125.446 E0.3053
G1 X96.935 Y125.446 E0.3205
G1 X97.243 Y125.754 E0.3335
G1 X97.753 Y125.754 E0.3488
G1 X97.445 Y125.446 E0.3618
G1 X97.954 Y125.446 E0.3771
G1 X98.262 Y125.754 E0.3901
G1 X98.771 Y125.754 E0.4053
G1 X98.463 Y125.446 E0.4184
G1 X98.972 Y125.446 E0.4336
G1 X99.280 Y125.754 E0.4467
G1 X99.789 Y125.754 E0.4619
G1 X99.481 Y125.446 E0.4749
G1 X99.990 Y125.446 E0.4902
G1 X100.298 Y125.754 E0.5032
G1 X100.807 Y125.754 E0.5185
G1 X100.499 Y125.446 E0.5315
G1 X101.008 Y125.446 E0.5467
G1 X101.316 Y125.754 E0.5598
G1 X101.826 Y125.754 E0.5750
G1 X101.518 Y125.446 E0.5881
G1 X102.027 Y125.446 E0.6033
G1 X102.335 Y125.754 E0.6163
G1 X102.844 Y125.754 E0.6316
G1 X102.536 Y125.446 E0.6446
G1 X103.045 Y125.446 E0.6599
G1 X103.353 Y125.754 E0.6729
G1 X103.862 Y125.754 E0.6881
G1 X103.554 Y125.446 E0.7012
G1 X104.063 Y125.446 E0.7164
G1 X104.371 Y125.754 E0.7294
G1 X104.880 Y125.754 E0.7447
G1 X104.572 Y125.446 E0.7577
G1 X105.081 Y125.446 E0.7730
G1 X105.389 Y125.754 E0.7860
G1 X105.898 Y125.754 E0.8012
G1 X105.590 Y125.446 E0.8143
G1 X106.046 Y125.446 E0.8279
G1 X106.046 Y125.392 E0.8295
G1 X106.354 Y125.700 E0.8426
G1 X106.354 Y125.191 E0.8578
G1 X106.046 Y124.883 E0.8708
G1 X106.046 Y124.374 E0.8861
G1 X106.354 Y124.682 E0.8991
G1 X106.354 Y124.173 E0.9144
G1 X106.046 Y123.865 E0.9274
G1 X106.046 Y123.356 E0.9426
G1 X106.354 Y123.664 E0.9557
G1 X106.354 Y123.155 E0.9709
G1 X106.187 Y122.988 E0.9780
G1 X106.046 Y122.847 F960
G92 E0
G1 E-3.5000 F1800
; inner perimeter
G1 X106.660 Y106.660 F3600
G1 E0.0000 F1800
G92 E0
G1 X93.340 Y106.660 E0.3987 F960
G1 X93.340 Y102.971 E0.5091
G1 X94.260 Y102.971 E0.5367
G1 X94.260 Y105.740 E0.6196
G1 X105.740 Y105.740 E0.9632
G1 X105.740 Y102.971 E1.0461
G1 X106.660 Y102.971 E1.0736
G1 X106.660 Y106.460 E1.1781
G1 X106.660 Y106.660 F960
; outer perimeter
G1 X107.020 Y107.020 F3600
G92 E0
G1 X92.980 Y107.020 E0.4203 F720
G1 X92.980 Y102.611 E0.5522
G1 X94.620 Y102.611 E0.6013
G1 X94.620 Y105.380 E0.6842
G1 X105.380 Y105.380 E1.0063
G1 X105.380 Y102.611 E1.0892
G1 X107.020 Y102.611 E1.1383
G1 X107.020 Y106.820 E1.2643
G1 X107.020 Y107.020 F720
G92 E0
G1 E-3.5000 F1800
G1 X102.020 Y107.020 F2400
; solid layer
G1 X106.332 Y103.277 F3600
G1 E0.0000 F1800
G92 E0
G1 X106.354 Y103.299 E0.0009 F960
G1 X106.354 Y103.808 E0.0162
G1 X106.046 Y103.500 E0.0292
G1 X106.046 Y104.010 E0.0444
G1 X106.354 Y104.318 E0.0575
G1 X106.354 Y104.827 E0.0727
G1 X106.046 Y104.519 E0.0858
G1 X106.046 Y105.028 E0.1010
G1 X106.354 Y105.336 E0.1140
G1 X106.354 Y105.845 E0.1293
G1 X106.046 Y105.537 E0.1423
G1 X106.046 Y106.046 E0.1576
G1 X106.354 Y106.354 E0.1706
G1 X105.845 Y106.354 E0.1858
G1 X105.537 Y106.046 E0.1989
G1 X105.028 Y106.046 E0.2141
G1 X105.336 Y106.354 E0.2272
G1 X104.827 Y106.354 E0.2424
G1 X104.519 Y106.046 E0.2554
G1 X104.010 Y106.046 E0.2707
G1 X104.318 Y106.354 E0.2837
G1 X103.808 Y106.354 E0.2990
G1 X103.500 Y106.046 E0.3120
G1 X102.991 Y106.046 E0.3272
G1 X103.299 Y106.354 E0.3403
G1 X102.790 Y106.354 E0.3555
G1 X102.482 Y106.046 E0.3686
G1 X101.973 Y106.046 E0.3838
